X: 1
T: Forked Deer
S: RJ
M: C|
L: 1/8
R: Reel
K: D
% text Fiddles shuffle in. D, F#, and A are good notes to use.
(3v(ABc |\
"D"vd)efg a2 u(fa) | "G"gbag "A7"fdec |\
"D"defg agfa | "A7"gfed cABc ||\
"D"defg a2 u(fa) |
"G"gbag "A7"fdec | "D"d2 F2 "G"GBAG |\
[1 "A7"FDEu(C "D"D2) :|[2 "A7"FDEu(C "D"D4) |:\
"A"vA2 Ac (BA)cB | (Ac)BA (FE)F^G |
"A"A2 Ac (BA)cB | "D"(AF)EF D4 |\
"A"A2 Ac (BA)cB | (Ac)BA F2 E2 |\
(A,B,)CD (EF)GE | (FD)E(F "D"D4) :|


